src/assets/obucheniye/icons/facebook.svg

<svg fill="none" height="40" viewBox="0 0 40 40" width="40" xmlns="http://www.w3.org/2000/svg"><rect height="39" rx="2.5" stroke="#fff" width="39" x=".5" y=".5"/><path d="m26.4127 7.00551-3.4598-.00551c-3.887 0-6.3989 2.55813-6.3989 6.5175v3.005h-3.4787c-.3006 0-.5441.2419-.5441.5403v4.3539c0 .2984.2438.54.5441.54h3.4787v10.9864c0 .2984.2434.54.544.54h4.5387c.3006 0 .544-.2419.544-.54v-10.9864h4.0674c.3006 0 .544-.2416.544-.54l.0017-4.3539c0-.1432-.0575-.2805-.1593-.3818-.1019-.1014-.2407-.1585-.385-.1585h-4.0688v-2.5473c0-1.2244.2939-1.846 1.9008-1.846l2.3306-.0008c.3004 0 .5438-.2419.5438-.54v-4.04289c0-.29782-.2432-.53945-.5432-.54z" fill="#fff"/></svg>

<svg width="40" height="40" viewBox="0 0 40 40" fill="none" xmlns="http://www.w3.org/2000/svg">
<rect x="0.5" y="0.5" width="39" height="39" rx="2.5" stroke="white"/>
<path d="M26.4127 7.00551L22.9529 7C19.0659 7 16.554 9.55813 16.554 13.5175V16.5225H13.0753C12.7747 16.5225 12.5312 16.7644 12.5312 17.0628V21.4167C12.5312 21.7151 12.775 21.9567 13.0753 21.9567H16.554V32.9431C16.554 33.2415 16.7974 33.4831 17.098 33.4831H21.6367C21.9373 33.4831 22.1807 33.2412 22.1807 32.9431V21.9567H26.2481C26.5487 21.9567 26.7921 21.7151 26.7921 21.4167L26.7938 17.0628C26.7938 16.9196 26.7363 16.7823 26.6345 16.681C26.5326 16.5796 26.3938 16.5225 26.2495 16.5225H22.1807V13.9752C22.1807 12.7508 22.4746 12.1292 24.0815 12.1292L26.4121 12.1284C26.7125 12.1284 26.9559 11.8865 26.9559 11.5884V7.54551C26.9559 7.24769 26.7127 7.00606 26.4127 7.00551Z" fill="white"/>
</svg>
